X:110
T:Real Scotch Polkas #3. Le4.110
T:Lass of Gowrie,aka, The
M:2/4
L:1/8
Q:1/4=100
N:Real Scotch Polkas (3)
B:L.Leadley MS#4 c1850
Z:Village Music Project, 2016 Ruairidh Greig
K:Bb
(f/e/)|(df) f(g/a/)|(b>c').b.a|{a/}.g.f.g.a|.c'.d'.c' c|
(df) f.g/.a/|.b.c'.d'.c'|(c'/b/a/g/) fb|{d}cBB:|
f/e/|.d.f.B d/e/|(f/e/d/e/) f(e/d/)|eg.c (e/f/)|(g/f/e/f/) .g(f/e/)|
.d.f.c>.d|.B.G.F (D/F/)|(G/F/=E/F/) (B/d/f/_e/)|dcB"$""_D.C."||
B:L.Leadley MS#4 c1850
Z:Village Music Project, 2016 Ruairidh Greig
K:Eb
G|.Ez/F/GA|BEed|cE ec|BE ez/F/|
.E.F.G.A|.B.E ef|.gz/.g/fe|fB/B/ BB|
.gz/.g/.f.e|.fz/.f/.e.d|.ez/.e/.d.c|BG/G/ GG|
.G.>F.G.A|BE ez/.d/|cz/(e/d)z/f/|ee/e/ e"Da Capo"|]

